storage/app/icons/phosphoricons/regular/film-strip.svg

<svg xmlns="http://www.w3.org/2000/svg" fill="currentColor" viewBox="0 0 256 256"><path d="M216 40H40a16 16 0 0 0-16 16v144a16 16 0 0 0 16 16h176a16 16 0 0 0 16-16V56a16 16 0 0 0-16-16M40 88h80v80H40Zm96-16V56h32v16Zm-16 0H88V56h32Zm0 112v16H88v-16Zm16 0h32v16h-32Zm0-16V88h80v80Zm80-96h-32V56h32ZM72 56v16H40V56ZM40 184h32v16H40Zm176 16h-32v-16h32z"/></svg>

<svg xmlns="http://www.w3.org/2000/svg" viewBox="0 0 256 256" fill="currentColor"><path d="M216,40H40A16,16,0,0,0,24,56V200a16,16,0,0,0,16,16H216a16,16,0,0,0,16-16V56A16,16,0,0,0,216,40ZM40,88h80v80H40Zm96-16V56h32V72Zm-16,0H88V56h32Zm0,112v16H88V184Zm16,0h32v16H136Zm0-16V88h80v80Zm80-96H184V56h32ZM72,56V72H40V56ZM40,184H72v16H40Zm176,16H184V184h32v16Z"/></svg>
